X:1
T:Paresis
R:Reel
L:1/8
Z:John Erdman <jperdman:agate.NET>
Z:Terry Traub 2000-7-5
M:C|
C:Sandy's MacIntyre's Book
K:GDor
"A"\
|: "Gm"{A}BAGF DGGB | "F"AFcF dFcF | "Gm"BAGF DGGA | "Gm"BdcA BG G2  :|
"B"\
|| "Gm"{A}B2g2 g2ga | "D7"bga^f "Gm"gdBG | "F"F2f2 fefg | "C"afge "F"fcAF |
|  "Gm"G2g2 g^fga | "D7"bga^f "Gm"g2de | "Bb"fefd cAFA | "D7"BGA^F G2 |]
"C"\
|| "Gm"{A}B2g2 g2ab | "D7"bga^f "Gm"gdBG | "F"CFA,F CFA,F | fefg afcA |
|  "Gm"{F}G2g2 g2ab | "D7"bga^f "Gm"g2de | "F"fefd cAGF | "D7"DGGA "Gm"G2 |]
